X:1
T:Title
%%score { ( 1 4 5 ) | ( 2 3 6 ) }
L:1/8
Q:1/4=110
M:4/4
K:Bb
V:1 treble nm="Grand Piano"
V:4 treble 
V:5 treble 
V:2 bass 
V:3 bass 
V:6 bass 
V:1
 B2 B2 B>F D>F | B2 c2 d2 d>c | B2 [FA]2 G2 B2 | F6[K:bass] z2 | G2 G2 G>E C>E | G2 A2 B2 c>c | %6
w: W.~A.~Ogden * * * * *||||||
 d2 c2 d2 [B=e]2 | [Af]6[K:bass][K:treble] z2 | [Bd]2 [Bd]2 [Bd]>c [DB]>c | [Bd]4 [DB]2 z2 | %10
w: ||||
 [ce]2 [ce]2 [ce]>d [Ac]>d | [ce]6[K:bass] z2 | [Bd]2 [Bd]2 [Bd]>c [Bd]>e | [df]4 [ce]2 d>c | %14
w: ||||
 B2 d2 [Ec]3 A | [DB]6 z2 | [DF]6 z2 | [DF]6 z2 | [DF]>[_D=E] [=DF]>[DB] [_Ec]>[DB] [Fd]>[DB] | %19
w: |||||
 [FA]4 z4 | [Ec]6 z2 |[M:3/4] [Ec]6 |[M:1/4] (3=Bcd |[M:4/4] c>=B c>d e>c f>e | d6[K:bass] z2 | %25
w: ||||||
 [DF]6 z2 | [DF]6 z2 | [DF]>[_D=E] [=DF]>[DB] [_Ec]>[DB] [Fd]>[DB] | [FA]4 z4 | [Ec]6 z2 | %30
w: |||||
[M:3/4] [Ec]6 |[M:1/4] (3=Bcd |[M:4/4] c>=B c>d e>c G>A |[M:3/4] B6 |] %34
w: ||||
V:2
 B,2 B,2 B,>F, D,>F, | F4 z4[K:bass] | [G,B,D]2 [D,B,]2 [E,B,E]2 [G,B,E]2 | [B,D]6 z2 | %4
 G,2 G,2 G,>E, C,>E, | G,2 [^F,A,D]2[K:treble] [G,D]2 [=F,A,F]>[F,A,F] | %6
 [B,F]2 [A,CF]2 [B,F]2[K:bass] [G,C]2 | C6 z2 | B,,2 B,2 z z/[K:treble] F/ z z/ F/ | %9
 B,,2 B,2 B,,2 B,2 | F,,2 F,2 z z/[K:treble] B/ z z/ B/ | [F,,F,]2 C,2 A,,2 F,,2 | %12
 B,,2 B,2 z z/[K:treble] A/ z z/ c/ | B,,2 B,2 E,2[K:treble] F>E | [F,D]2 F2[K:bass] [F,,F,]3 C | %15
 B,,2 B,2 B,,2 z2 | B,,2 B,,2 B,,2 (3_D=DE | B,,2 B,,2 B,,2 (3_D=DE | %18
 [B,,B,]>[B,,B,] [B,,B,]>[B,,B,] [B,,B,]>[B,,B,] [B,,B,]>[B,,B,] | %19
 [E,B,]2 E,2 z z/[K:treble] F/ E>D | C,2 C,2 C,2 (3DEF |[M:3/4] C,2 C,2 C,2 | %22
[M:1/4][K:treble] (3DEF |[M:4/4] [F,A,F]>[F,_A,F] [F,=A,F]>[F,B,F] [F,CF]>[F,A,F] [F,DF]>[F,CF] | %24
 F6[K:bass] z2 | B,,2 B,,2 B,,2 (3_D=DE | B,,2 B,,2 B,,2 (3_D=DE | %27
 [B,,B,]>[B,,B,] [B,,B,]>[B,,B,] [B,,B,]>[B,,B,] [B,,B,]>[B,,B,] | %28
 [E,B,]2 E,2 z z/[K:treble] F/ E>D | C,2 C,2 C,2 (3DEF |[M:3/4] C,2 C,2 C,2 | %31
[M:1/4][K:treble] (3DEF | %32
[M:4/4] [F,A,F]>[F,_A,F][K:bass] [F,=A,F]>[F,B,F] [F,CF]>[F,A,E] [F,B,E]>[F,CE] | %33
[M:3/4] [B,,B,]2 [B,,F,]>[B,,F,] [B,,F,]2 |] %34
V:3
 x8 | [B,D]2 [A,C]2 [B,F]2[K:bass] [F,B,F]>[^F,A,E] | x8 | x8 | x8 | x4[K:treble] x4 | %6
 x6[K:bass] x2 | F,2 F,,>F,, z2 F2 | z4 B,,2[K:treble] B,2 | x8 | z4 F,,2[K:treble] F,2 | x8 | %12
 z4 B,,2[K:treble] B,2 | x6[K:treble] x2 | x4[K:bass] x4 | x8 | x8 | x8 | x8 | %19
 z4 E,2[K:treble] z2 | x8 |[M:3/4] x6 |[M:1/4][K:treble] x2 |[M:4/4] x8 | %24
 B,2[K:bass] (3B,,B,,B,, B,,2 F,>D, | x8 | x8 | x8 | z4 E,2[K:treble] z2 | x8 |[M:3/4] x6 | %31
[M:1/4][K:treble] x2 |[M:4/4] x2[K:bass] x6 |[M:3/4] x6 |] %34
V:4
 x8 | x8 | x8 | z2[K:bass] B,,>B,, B,,>D, F,>^F, | x8 | x8 | x8 | %7
 z2[K:bass] F,>F, z2[K:treble] e2 | x8 | x8 | x8 | z2 C2[K:bass] A,2 F,2 | x8 | x8 | x8 | x8 | %16
 B,2 B,2 B,2 (3=EFG | B,2 B,2 B,2 (3=EFG | x8 | z2 B,2 [B,EG]2 z2 | C2 G,2 G,2 (3=Bcd | %21
[M:3/4] C2 G,2 G,2 |[M:1/4] x2 |[M:4/4] x8 | z2[K:bass] (3B,B,B, B,2 z2 | B,2 B,2 B,2 (3=EFG | %26
 B,2 B,2 B,2 (3=EFG | x8 | z2 B,2 [B,EG]2 z2 | C2 G,2 G,2 (3=Bcd |[M:3/4] C2 G,2 G,2 |[M:1/4] x2 | %32
[M:4/4] x8 |[M:3/4] D2 D>D D2 |] %34
V:5
 x8 | x8 | x8 | x2[K:bass] x6 | x8 | x8 | x8 | z4[K:bass] F,4[K:treble] | x8 | x8 | x8 | %11
 x4[K:bass] x4 | x8 | x8 | x8 | x8 | x8 | x8 | x8 | x8 | x8 |[M:3/4] x6 |[M:1/4] x2 |[M:4/4] x8 | %24
 x2[K:bass] x6 | x8 | x8 | x8 | x8 | x8 |[M:3/4] x6 |[M:1/4] x2 |[M:4/4] x8 |[M:3/4] x6 |] %34
V:6
 x8 | x6[K:bass] x2 | x8 | x8 | x8 | x4[K:treble] x4 | x6[K:bass] x2 | z4 F,,4 | %8
 x11/2[K:treble] x5/2 | x8 | x11/2[K:treble] x5/2 | x8 | x11/2[K:treble] x5/2 | x6[K:treble] x2 | %14
 x4[K:bass] x4 | x8 | x8 | x8 | x8 | x11/2[K:treble] x5/2 | x8 |[M:3/4] x6 |[M:1/4][K:treble] x2 | %23
[M:4/4] x8 | x2[K:bass] x6 | x8 | x8 | x8 | x11/2[K:treble] x5/2 | x8 |[M:3/4] x6 | %31
[M:1/4][K:treble] x2 |[M:4/4] x2[K:bass] x6 |[M:3/4] x6 |] %34

